X:1
T:Impatient Heart, Be Still
T:George Coles Stebbins
T:Impatient Heart, Be Still
T:Public Domain
T:Public Domain
C:George Coles Stebbins
Z:Public Domain
%%score ( 1 2 ) ( 3 4 )
L:1/8
M:2/4
K:A
V:1 treble 
V:2 treble 
V:3 bass 
V:4 bass 
V:1
 [CE] | [CE][EA] [DG]>[CA] | [CA]3 [FA] | [EG][DF] [DF]>[CE] | [CE]3 [EA] | [DG][CA] [Ec]>[EB] | %6
w: 1.~Im-|pa- tient heart, be|still! What|though He tar- ries|long? What|though the tri- umph|
w: 2.~My|ea- ger heart, be|still! Thy|Lord will sure- ly|come, And|take thee to His|
w: 3.~My|anx- ious heart, be|still! Watch,|work, and pray, and|then It|will not mat- ter|
 [EB]3 [EG] | EE ^D[DG] | E3 [B,E] | [CF][Fd] [Ec]>[DB] | [CA]3 [EB] | [Ec][Ee] [Ed]>[Ec] | %12
w: song Is|still (is still) de-|Thou hast|prom- ise sure, And|that is|all se- cure; Be|
w: home, With|Him (with Him) to|It may|be to- day; And|yet, my|soul, it may; I|
w: when Thy|Lord (Thy Lord) shall|At mid-|or at noon; He|can- not|come too soon To|
 [EB]3 [Ec] | [EA]>[CE] [DF]2- | [DF][FB] [EA]>[DG] | [CA]3 ||"^Refrain" [CE] | [DB]3 [Ec] | %18
w: not a-|fraid! Be not|* a- fraid! *||||
w: can- not|tell, I can-|* not tell. Be|still!|Be|still! Im-|
w: take thee|home, to take|* thee home. *||||
 [CA]3 [FA] | [EG][DF] CC | [B,E]2 [DE]2 | [CE]3 |] %22
w: ||||
w: pa- tient|heart be still! *|||
w: ||||
V:2
 x | x4 | x4 | x4 | x4 | x4 | x4 | F3 x | E3 x | x4 | x4 | x4 | x4 | x4 | x4 | x3 || x | x4 | x4 | %19
w: |||||||layed?|His|||||||||||
w: |||||||dwell;|not|||||||||||
w: |||||||come;|night,|||||||||||
 x2 E2- | x4 | x3 |] %22
w: |||
w: |||
w: |||
V:3
 [A,,A,] | [A,,A,][A,,C] [E,B,]>[A,,A,] | [A,,A,]3 [D,A,] | [D,A,][D,A,] [A,,A,]>[A,,A,] | %4
w: ~|~ ~ ~ ~|~ ~|~ ~ ~ ~|
 [A,,A,]3 [C,A,] | [B,,E,][A,,E,] [E,A,]>[E,G,] | [E,G,]3 [G,,B,] | [A,,C][A,,C] [B,,A,][B,,B,] | %8
w: ~ ~|~ ~ ~ ~|~ ~|~ ~ ~ ~|
 [E,G,]3 [E,G,] | [E,A,][E,A,] [E,G,]>[E,G,] | [A,,A,]3 [E,G,] | A,[A,C] [G,B,]>A, | %12
w: ~ ~|~ ~ ~ ~|~ ~|~ ~ ~ ~|
 [E,G,]3 [A,,A,] | [C,A,]>[A,,A,] [D,A,]2- | [D,A,][B,,D] [E,C]>[E,B,] | [A,,A,]3 || z | %17
w: ~ ~|~ ~ ~|* ~ ~ Be|still!||
 z [E,G,] [E,G,] z | z [A,,E,] [A,,E,] z | z2 z [E,A,] | [E,G,]2 [E,B,]2 | [A,,A,]3 |] %22
w: be still!|be still,||||
V:4
 x | x4 | x4 | x4 | x4 | x4 | x4 | x4 | x4 | x4 | x4 | A, x3/2 A,/ x | x4 | x4 | x4 | x3 || x | %17
w: |||||||||||~ ~||||||
 x4 | x4 | x4 | x4 | x3 |] %22
w: |||||

